X:23020
T:Wait for the Waggon
R:March
C:Trad.
O:USA 1851
Z:Paul Hardy's Session Tunebook 2015 (see www.paulhardy.net). Creative Commons cc by-nc-sa licenced.
M:2/2
L:1/8
Q:1/2=90
K:D
A2|"D"d2d2 D2D2|F2G2 A4|"G"B2B2 G2B2|"D"A4 AB c2|d2d2 D2D2|F2G2A4|"A"Bc d2c2e2|"D"d4 d2:|
|:e2|"D"f4f3e|"Bm"d2B2B4|"A"e3f e2d2|c2B2A2Bc|"D"d2d2D2D2|F2G2A4|"A"Bc d2c2e2|"D"d4d2:|

